X:1
T:Title
%%score { ( 1 4 ) | ( 2 3 ) }
L:1/8
M:2/2
K:Bb
V:1 treble nm="Grand Piano"
V:4 treble 
V:2 bass 
V:3 bass 
V:1
 z4 z2[Q:1/4=108] [B,D][CE] | [DF]2 [DB]2 [FB]2 [FA]2 | [FA]2 G4 G2 | F2 FG F2 [A,E]2 | %4
 [B,D]6 [B,D][CE] | [DF]2 [DB]2 [FB]2 [FA]2 | [FA]2 G4 G2 | F2 B2 A2 c2 | [DB]8 | [Fd]4 d4 | %10
 e4 d4 | B2 B2 [C=EB]2 E-[EB] | c8 | [^Fd]4 [DB]4 | c3 G G4 | %15
 F2 F2 F2 F2[Q:1/4=106][Q:1/4=105][Q:1/4=103][Q:1/4=102][Q:1/4=100][Q:1/4=98][Q:1/4=97][Q:1/4=95][Q:1/4=94] | %16
[M:3/4] [DF]6[Q:1/4=92][Q:1/4=91][Q:1/4=89][Q:1/4=87][Q:1/4=86][Q:1/4=84][Q:1/4=83] |] %17
V:2
 z4 z2 [B,,F,]2 | [B,,B,]2 [B,,F,]2 [D,F,]2 [D,B,]2 | [E,B,]2 [E,B,E]4 [E,B,E]2 | %3
 [F,B,D]2 DE [F,A,C]2 [F,,F,]2 | [B,,F,]6 [B,,F,]2 | [B,,B,]2 [B,,F,]2 [D,F,]2 [D,B,]2 | %6
 [E,B,]2 [E,B,E]4 [E,B,E]2 | [F,B,D]2 [F,D]2 [F,C]2 [F,E]2 | [B,,F,]8 | %9
 [B,,B,]2 D,2[K:treble] .[F,B,F]4 | [A,CF]4 [B,F]4 | [G,DG]2 [G,B,D]2[K:bass] .C,3 B, | [F,A,F]8 | %13
 [D,A,]2 D,2 G,2 G,2 | [E,G,E]3 [E,B,E] [E,B,E]4 | [F,B,D]2 [F,B,D]2 [F,A,C]2 [F,CE]2 | %16
[M:3/4] [B,,B,]6 |] %17
V:3
 x8 | x8 | x8 | z2 [F,B,]2 z4 | x8 | x8 | x8 | x8 | x8 | x4[K:treble] x4 | x8 | z4[K:bass] z2 C,2 | %12
 x8 | x8 | x8 | x8 |[M:3/4] x6 |] %17
V:4
 x8 | x8 | x8 | x8 | x8 | x8 | x8 | x8 | x8 | z2 B,2 z2 B,2 | x8 | z4 z2 .[CA]2 | x8 | %13
 z2 A,2 B,2 B,2 | x8 | x8 |[M:3/4] x6 |] %17

